X: 1
T: The Fox In The Thatch
R: jig
M: 6/8
L: 1/8
K: Gdor
A|:cAF AFD|~C2C FDC|FGA cAG|Add dcA|!
cAF AFD|~C2C FDC|FGA cAG|AFF F2:|!
G|:AFA cAc|dgd d2c|~d2d agf|gag gfd|!
f2d cAF|(3ABc A FDC|FGA cAG|AFF F2:|
